X:1
T:Sofia, 76.86 D
T:Sofia, 76.86 D
T:Daniel Brink Towner, 1903
T:Public Domain Courtesy of the Cyber Hymnal™
C:Daniel Brink Towner, 1903
Z:Public Domain
Z:Courtesy of the Cyber Hymnal™
%%score ( 1 2 ) ( 3 4 )
L:1/8
Q:1/4=110
M:4/4
K:D
V:1 treble 
V:2 treble 
V:3 bass 
V:4 bass 
V:1
 [DF]2 | [FA]3 [FA] [^E^G]2 [EB]2 | [FA]3 [FA] [DF]2 [DF]2 | [EA]3 [FA] [EG]2 [CA]2 | [DF]6 [DF]2 | %5
 [FA]3 [FA] [^E^G]2 [EB]2 | [FA]3 [FA] [DF]2 [Ed]2 | [Ec]3 [Ec] [Ed]2 [E^G]2 | [EA]6 [GA]2 | %9
 [Fd]3 [Gd] [Ad]2 [Ac]2 | [Ac]3 [GB] [GB]2 [GB]2 | [^Ge]3 [Ae] [Be]2 [Bd]2 | [Ac]6 [Ac]2 | %13
 [^Af]3 [Bf] [cf]2 [Ae]2 | [Be]3 [Bd] [GB]2 [EG]2 | [DF]2 [DF]2 [CF]3 [CE] | D6 |] %17
V:2
 x2 | x8 | x8 | x8 | x8 | x8 | x8 | x8 | x8 | x8 | x8 | x8 | x8 | x8 | x8 | x8 | D6 |] %17
V:3
 [D,A,]2 | [D,D]3 [D,C] [D,B,]2 [D,^G,]2 | [D,A,]3 [D,A,] [D,A,]2 [D,A,]2 | %3
 [A,,C]3 [A,,D] [A,,A,]2 [A,,A,]2 | [D,A,]6 [D,A,]2 | [D,D]3 [D,C] [D,B,]2 [D,^G,]2 | %6
 [D,A,]3 [D,A,] [D,A,]2 [D,A,]2 | [E,A,]3 [E,A,] [E,^G,]2 [E,D]2 | [A,C]6 [A,C]2 | %9
 [D,D]3 [E,D] [F,D]2 [F,D]2 | [G,D]3 [G,D] [G,D]2 [G,E]2 | [E,E]3 [F,E] [^G,E]2 [G,E]2 | %12
 [A,E]6 [G,E]2 | [F,E]3 [^G,D] [^A,C]2 [F,C]2 | [G,B,]3 [G,D] [G,D]2 [G,B,]2 | %15
 A,2 A,2 [A,,A,]3 [A,,G,] | [D,F,]6 |] %17
V:4
 x2 | x8 | x8 | x8 | x8 | x8 | x8 | x8 | x8 | x8 | x8 | x8 | x8 | x8 | x8 | A,2 A,2 x4 | x6 |] %17

